Yosa-Max-Dark/actions/22x22/configure-shortcuts.svg

<?xml version="1.0" encoding="UTF-8"?>
<svg id="svg7" version="1.1" viewBox="0 0 22 22" xmlns="http://www.w3.org/2000/svg">
 <defs id="defs3">
  <style id="current-color-scheme" type="text/css">.ColorScheme-Text { color:#dfdfdf; } .ColorScheme-Highlight { color:#5294e2; } .ColorScheme-ButtonBackground { color:#d3dae3; }</style>
 </defs>
 <path id="rect840" d="m2 3.8v14.4h18v-14.4zm2.7 2.4h1.8c0.1662 0 0.3 0.1338 0.3 0.3v1.8000002c0 0.1662-0.1338 0.3-0.3 0.3h-1.8c-0.1662 0-0.3-0.1338-0.3-0.3v-1.8000002c0-0.1662 0.1338-0.3 0.3-0.3zm3.6 0h1.8c0.1662 0 0.3 0.1338 0.3 0.3v1.8000002c0 0.1662-0.1338 0.3-0.3 0.3h-1.8c-0.1662 0-0.3-0.1338-0.3-0.3v-1.8000002c0-0.1662 0.1338-0.3 0.3-0.3zm3.6 0h1.8c0.1662 0 0.3 0.1338 0.3 0.3v1.8000002c0 0.1662-0.1338 0.3-0.3 0.3h-1.8c-0.1662 0-0.3-0.1338-0.3-0.3v-1.8000002c0-0.1662 0.1338-0.3 0.3-0.3zm3.6 0h1.8c0.1662 0 0.3 0.1338 0.3 0.3v1.8000002c0 0.1662-0.1338 0.3-0.3 0.3h-1.8c-0.1662 0-0.3-0.1338-0.3-0.3v-1.8000002c0-0.1662 0.1338-0.3 0.3-0.3zm-10.8 3.6h1.8c0.1662 0 0.3 0.1338 0.3 0.3v1.8c0 0.1662-0.1338 0.3-0.3 0.3h-1.8c-0.1662 0-0.3-0.1338-0.3-0.3v-1.8c0-0.1662 0.1338-0.3 0.3-0.3zm3.6 0h1.8c0.1662 0 0.3 0.1338 0.3 0.3v1.8c0 0.1662-0.1338 0.3-0.3 0.3h-1.8c-0.1662 0-0.3-0.1338-0.3-0.3v-1.8c0-0.1662 0.1338-0.3 0.3-0.3zm3.6 0h1.8c0.1662 0 0.3 0.1338 0.3 0.3v1.8c0 0.1662-0.1338 0.3-0.3 0.3h-1.8c-0.1662 0-0.3-0.1338-0.3-0.3v-1.8c0-0.1662 0.1338-0.3 0.3-0.3zm3.6 0h1.8c0.1662 0 0.3 0.1338 0.3 0.3v1.8c0 0.1662-0.1338 0.3-0.3 0.3h-1.8c-0.1662 0-0.3-0.1338-0.3-0.3v-1.8c0-0.1662 0.1338-0.3 0.3-0.3zm-8.4 3.6h7.8c0.1662 0 0.3 0.1338 0.3 0.3v1.8c0 0.1662-0.1338 0.3-0.3 0.3h-7.8c-0.1662 0-0.3-0.1338-0.3-0.3v-1.8c0-0.1662 0.1338-0.3 0.3-0.3z" style="fill:#dfdfdf"/>
</svg>

<?xml version="1.0" encoding="UTF-8" standalone="no"?>
<svg
   xmlns:dc="http://purl.org/dc/elements/1.1/"
   xmlns:cc="http://creativecommons.org/ns#"
   xmlns:rdf="http://www.w3.org/1999/02/22-rdf-syntax-ns#"
   xmlns:svg="http://www.w3.org/2000/svg"
   xmlns="http://www.w3.org/2000/svg"
   width="22"
   height="22"
   viewBox="0 0 22 22"
   version="1.1"
   id="svg7">
  <metadata
     id="metadata11">
    <rdf:RDF>
      <cc:Work
         rdf:about="">
        <dc:format>image/svg+xml</dc:format>
        <dc:type
           rdf:resource="http://purl.org/dc/dcmitype/StillImage" />
        <dc:title></dc:title>
      </cc:Work>
    </rdf:RDF>
  </metadata>
  <defs
     id="defs3">
    <style
       type="text/css"
       id="current-color-scheme">
   .ColorScheme-Text { color:#dfdfdf; } .ColorScheme-Highlight { color:#5294e2; } .ColorScheme-ButtonBackground { color:#d3dae3; }
  </style>
  </defs>
  <path
     style="opacity:1;vector-effect:none;fill:#dfdfdf;fill-opacity:1;stroke:none;stroke-width:0.48999995;stroke-linecap:butt;stroke-linejoin:miter;stroke-miterlimit:4;stroke-dasharray:none;stroke-dashoffset:0;stroke-opacity:1"
     d="M 2,3.8 V 18.2 H 20 V 3.8 Z m 2.7,2.4 h 1.8 c 0.1662,0 0.3,0.1338 0.3,0.3 v 1.8000002 c 0,0.1662 -0.1338,0.3 -0.3,0.3 H 4.7 c -0.1662,0 -0.3,-0.1338 -0.3,-0.3 V 6.5 C 4.4,6.3338 4.5338,6.2 4.7,6.2 Z m 3.6,0 h 1.8 c 0.1662,0 0.3,0.1338 0.3,0.3 v 1.8000002 c 0,0.1662 -0.1338,0.3 -0.3,0.3 H 8.3 c -0.1662,0 -0.3,-0.1338 -0.3,-0.3 V 6.5 C 8,6.3338 8.1338,6.2 8.3,6.2 Z m 3.6,0 h 1.8 c 0.1662,0 0.3,0.1338 0.3,0.3 v 1.8000002 c 0,0.1662 -0.1338,0.3 -0.3,0.3 h -1.8 c -0.1662,0 -0.3,-0.1338 -0.3,-0.3 V 6.5 c 0,-0.1662 0.1338,-0.3 0.3,-0.3 z m 3.6,0 h 1.8 c 0.1662,0 0.3,0.1338 0.3,0.3 v 1.8000002 c 0,0.1662 -0.1338,0.3 -0.3,0.3 h -1.8 c -0.1662,0 -0.3,-0.1338 -0.3,-0.3 V 6.5 c 0,-0.1662 0.1338,-0.3 0.3,-0.3 z M 4.7,9.8 h 1.8 c 0.1662,0 0.3,0.1338 0.3,0.3 v 1.8 c 0,0.1662 -0.1338,0.3 -0.3,0.3 H 4.7 C 4.5338,12.2 4.4,12.0662 4.4,11.9 V 10.1 C 4.4,9.9338 4.5338,9.8 4.7,9.8 Z m 3.6,0 h 1.8 c 0.1662,0 0.3,0.1338 0.3,0.3 v 1.8 c 0,0.1662 -0.1338,0.3 -0.3,0.3 H 8.3 C 8.1338,12.2 8,12.0662 8,11.9 V 10.1 C 8,9.9338 8.1338,9.8 8.3,9.8 Z m 3.6,0 h 1.8 c 0.1662,0 0.3,0.1338 0.3,0.3 v 1.8 c 0,0.1662 -0.1338,0.3 -0.3,0.3 h -1.8 c -0.1662,0 -0.3,-0.1338 -0.3,-0.3 v -1.8 c 0,-0.1662 0.1338,-0.3 0.3,-0.3 z m 3.6,0 h 1.8 c 0.1662,0 0.3,0.1338 0.3,0.3 v 1.8 c 0,0.1662 -0.1338,0.3 -0.3,0.3 h -1.8 c -0.1662,0 -0.3,-0.1338 -0.3,-0.3 v -1.8 c 0,-0.1662 0.1338,-0.3 0.3,-0.3 z m -8.4,3.6 h 7.8 c 0.1662,0 0.3,0.1338 0.3,0.3 v 1.8 c 0,0.1662 -0.1338,0.3 -0.3,0.3 H 7.1 c -0.1662,0 -0.3,-0.1338 -0.3,-0.3 v -1.8 c 0,-0.1662 0.1338,-0.3 0.3,-0.3 z"
     id="rect840" />
</svg>
